X:1
T:Title
%%score { ( 1 3 ) | ( 2 4 ) }
L:1/8
M:3/4
K:F
V:1 treble nm="Grand Piano"
V:3 treble 
V:2 bass 
V:4 bass 
V:1
 z2 z2[Q:1/4=176] C2 | A4 [GB]2 | [Ac]4 [Bd]>[Ac] | [GB]4 [Ec]2 | A4 C2 | A4 [GB]2 | %6
 [Ac]4 [Bd]>[Ac] | [GB]4 [Ec]2 | [FA]4 [FA]2 | [EG]4 [Ec]2 | =B4 d2 | ^c4 e2 | [Fd]4 [Gf]2 | %13
 [Ge]4 d>c | =B4 B2 | [Fc]4 [_Ec]2 | [Ec]4 [Bd]2 | [CGB]2 z2 [CAc]2 | [CFA]2 z2 [CGB]2 | %19
 [B,EG]4 [A,_E^F][B,=EG] |[M:5/8] c-c- c2- c/ z/ |[M:1/4] C2 |[M:3/4] A4 [GB]2 | [Ac]4 [Bd]>[Ac] | %24
 [GB]4 [Ec]2 | A4 C2 | A4 [GB]2 | [Ac]4 [Bd]>[CAc] | [CGB]4 [CEc]2 | [CFA]4 [A,F]2 | c6- | c6- | %32
 c6- |[M:2/4] c4 |] %34
V:2
 z2 z2 C,2 | [F,CF]4 [F,C]2 | [F,C]4 [F,C]>[F,C] | [C,C]4 [C,C]2 | [F,CF]4 [F,A,]2 | %5
 [F,CF]4 [F,C]2 | [F,C]4 [F,C]>[F,C] | [C,C]4 [C,C]2 | [F,C]4 [F,C]2 | [C,C]4 [C,C]2 | %10
 [G,DF]4 [G,=B,F]2 | [A,G]4 [A,G]2 | [D,A,]4 [D,=B,]2 | [C,C]4 [D,=B,]>[E,C] | [G,DF]4 [G,F]2 | %15
 [C,G,]4 [C,^F,]2 | [C,G,]4 [C,G,]2 | B,,2 z2 C,2 | C,2 z2 C,2 | C,4 C,2 |[M:5/8] G, z z z2 | %21
[M:1/4] C,2 |[M:3/4] [F,CF]4 [F,C]2 | [F,C]4 [F,C]>[F,C] | [C,C]4 [C,C]2 | [F,CF]4 [F,A,]2 | %26
 [F,CF]4 [F,C]2 | [F,C]4 [F,C]>F, | B,,4 C,2 | F,4 F,2 | z2 z2 A,2 | C4 A,2 | C4 A,2 | %33
[M:2/4] F,,4 |] %34
V:3
 x6 | x6 | x6 | x6 | x6 | x6 | x6 | x6 | x6 | x6 | x6 | x6 | x6 | z2 z2 G2 | x6 | x6 | x6 | x6 | %18
 x6 | x6 |[M:5/8] EF G3 |[M:1/4] x2 |[M:3/4] x6 | x6 | x6 | x6 | x6 | x6 | x6 | x6 | [CA]4 F2 | %31
 A4 F2 | A4 F2 |[M:2/4] [CA]4 |] %34
V:4
 x6 | x6 | x6 | x6 | x6 | x6 | x6 | x6 | x6 | x6 | x6 | x6 | x6 | x6 | x6 | x6 | x6 | x6 | x6 | %19
 x6 |[M:5/8] C,-[C,-A,] [C,B,]3 |[M:1/4] x2 |[M:3/4] x6 | x6 | x6 | x6 | x6 | x6 | x6 | x6 | F,6- | %31
 F,6- | F,6- |[M:2/4] F,4 |] %34

